X: 8084
T: Constitution Breakdown
R: reel
M: 4/4
K: Gmajor
|(3E2c2E2 dEcE|(3D2B2D2 cDBD|
Ec E2 dEcE|DB D2 cDBD|
Ec E2 dE c2|DB D2 cD B2|
Ec E/E/E dE c/c/c|DB D/D/D cD B/B/B|
(3E2c2E2 dEcE|D2 BD cDBD|

